X: 31
T:Cock Up Thy Beaver,Jemme. HA.032
T:Johnny,Cock Thy Beaver,aka. HA.032
M:6/4
L:1/4
Q:120
S:Henry Atkinson's original MS,Hartburn,N'umberland,1694.
O:England
A:Hartburn,Northumberland
N:cf Playford Division Violin
H:1/4
Z:vmp.Chris Partington.Jan.2004
K:F
d|c2FA>GF|G>AGB2D|c2FA2G|FfBABc|!
"qu's"dcd"qu's"fcA|G>AGB2f|c2BA2G|FfcA2F||!
Ffc(A/B/)cA|GgdB2G|Ffc(A/B/)cA|FfBABc|!
B/A/B/c/d/e/fFA|G>AGB2f|c2BA2G|FfcA2F||!
cA Fc (A/B/c/A/)|(dB) Gd/c/B/A/G|\
(cA) Fc/B/A/B/c/A/|c/B/A/B/c/A/ c/B/A/B/c/A/ |!
d/c/B/c/d/B/ c/B/A/B/c/A/|G/F/G/A/B/c/ d2f|\
c>dc/B/ A>BA/G/| Ffc A2F||!
F>GA/B/ c(d/c/B/A/)|(GAG) B2D|\
F>GA/B/ c(d/c/B/A/)|c (d/c/B/A/) c (d/c/B/A/) |!
f (g/f/e/d/) c (d/c/B/A/)|"qu"F (A/B/c/A/) d (B/c/d/B/)|\
c (A/B/c/A/) B (G/A/B/G/)|Ffc A2 G||!
F/E/F/G/A/B/ c/B/A/B/c/A/|d/c/B/c/d/B/ G/F/G/A/B/c/ |\
d/c/B/c/d/B/ F/E/F/G/A/B/| c/B/A/B/c/A/ c/B/A/B/c/A/ |!
c/B/A/B/c/A/ d/c/B/c/d/B/ |c/B/A/B/c/A/ G/F/G/A/B/c/ |!
d/c/d/e/d/f/ c/B/c/d/B/d/ |A/B/c/A/B/G/|FfcA2F||!
FFf FFf|GGgfe/f/g|FFf AAf|ccd c/B/A/B/c/A/|!
B/A/B/c/d/e/ fFA|GgG B/A/B/c/d|fg/f/e/d/ cd/c/B/A/ |\
Ffc A2(GF)||!
f(fF) A(AG)|(gg)G (BB)d|(ff)c (dd)G|(cc)F A(AG)|!
B(BG) A(AF)|G>AG B2f|c2B A2G|Ffc A2(GD)||!
F3A3|G>AG B2D|F3A3|FfB ABc|!
(dc)d (fc)A|G>AG B2G|F3A3|Ffc A2(GF)|]
